Newaita-dark/actions/32/draw-text.svg

<?xml version="1.0" encoding="UTF-8"?>
<svg xmlns="http://www.w3.org/2000/svg" xmlns:xlink="http://www.w3.org/1999/xlink" width="32pt" height="32pt" viewBox="0 0 32 32" version="1.1">
<g id="surface1">
<path style=" stroke:none;fill-rule:nonzero;fill:rgb(47.058824%,56.470591%,61.176473%);fill-opacity:1;" d="M 8.929688 1.574219 C 8.378906 1.574219 7.9375 2.015625 7.9375 2.566406 L 7.9375 5.871094 C 7.9375 6.421875 8.378906 6.863281 8.929688 6.863281 L 13.230469 6.863281 L 13.230469 23.074219 C 13.230469 23.621094 13.671875 24.066406 14.222656 24.066406 L 17.53125 24.066406 C 18.078125 24.066406 18.523438 23.621094 18.523438 23.074219 L 18.523438 6.863281 L 22.824219 6.863281 C 23.371094 6.863281 23.816406 6.421875 23.816406 5.871094 L 23.816406 2.566406 C 23.816406 2.015625 23.371094 1.574219 22.824219 1.574219 Z M 8.929688 1.574219 "/>
<path style=" stroke:none;fill-rule:nonzero;fill:rgb(74.117649%,74.117649%,74.117649%);fill-opacity:1;" d="M 4.960938 1.574219 C 4.410156 1.574219 3.96875 2.015625 3.96875 2.566406 L 3.96875 26.050781 L 2.316406 26.050781 C 1.765625 26.050781 1.324219 26.492188 1.324219 27.042969 C 1.324219 27.589844 1.765625 28.035156 2.316406 28.035156 L 3.96875 28.035156 L 3.96875 29.6875 C 3.96875 30.238281 4.410156 30.679688 4.960938 30.679688 C 5.511719 30.679688 5.953125 30.238281 5.953125 29.6875 L 5.953125 28.035156 L 25.800781 28.035156 L 25.800781 29.6875 C 25.800781 30.238281 26.242188 30.679688 26.792969 30.679688 C 27.339844 30.679688 27.785156 30.238281 27.785156 29.6875 L 27.785156 28.035156 L 29.4375 28.035156 C 29.988281 28.035156 30.429688 27.589844 30.429688 27.042969 C 30.429688 26.492188 29.988281 26.050781 29.4375 26.050781 L 27.785156 26.050781 L 27.785156 2.566406 C 27.785156 2.015625 27.339844 1.574219 26.792969 1.574219 C 26.242188 1.574219 25.800781 2.015625 25.800781 2.566406 L 25.800781 26.050781 L 5.953125 26.050781 L 5.953125 2.566406 C 5.953125 2.015625 5.511719 1.574219 4.960938 1.574219 Z M 4.960938 1.574219 "/>
</g>
</svg>

<svg xmlns="http://www.w3.org/2000/svg" width="32pt" height="32pt" viewBox="0 0 32 32"><path d="M8.93 1.574a.989.989 0 0 0-.992.992v3.305c0 .55.44.992.992.992h4.3v16.211c0 .547.442.992.993.992h3.308a.994.994 0 0 0 .992-.992V6.864h4.301a.991.991 0 0 0 .992-.993V2.566a.991.991 0 0 0-.992-.992zm0 0" fill="#78909c"/><path d="M4.96 1.574a.989.989 0 0 0-.991.992v23.485H2.316a.989.989 0 0 0-.992.992c0 .547.442.992.992.992H3.97v1.652c0 .551.441.993.992.993.55 0 .992-.442.992-.992v-1.653h19.848v1.652a.991.991 0 1 0 1.984 0v-1.652h1.652c.551 0 .993-.445.993-.992a.989.989 0 0 0-.992-.992h-1.653V2.566a.991.991 0 0 0-.992-.992.989.989 0 0 0-.992.992v23.485H5.953V2.566a.989.989 0 0 0-.992-.992zm0 0" fill="#bdbdbd"/></svg>
